-----BEGIN PGP PUBLIC KEY BLOCK-----

mQINBGqoe4oBEADJW0P4eUa7qQqJ7ZX4NBQthtgrivW6hXaOCPNN6noxHV8f8lQG
reydlUGMVgmiqbsKUsx1O/6qL0FvA03/pKf7FkgKQMbWz4N9XdhcrDrZeYk4k0o9
6KiTVLOtPU+tZrnZLQ4vebQggWDMl4pDMP55pZFpl7NOp6bRaNHjdeoxCm2aLzcu
x10rOjluuVpOgEJWBPKqvCa1aWNRuXa0oXgyoZeQPzzHVeeNA4IJYutyHFK4CApj
aWkCIdICOxYbUMvW1zwqdh+Q1Psa7Urne2Nred1G/uinSd8rOKg5Ng4mHh10Lis+
72F7F5uqoZpq9LkR6WBAjFa+wNLsu5/yDxpPnJNlWLqPYD1GPSWdPN7SOa12krsK
kgfLE1QH4GLcVEKRzGC+mVFiVJNtbqItMvACC/27NqtZiJ33BbaiUjHl1OOn7pnP
MSufSdZd3Ry/6XRxO8zjX3ihSmxPu/VOc1amSivi6VWJChmipbd4WpTwbIcfQRCP
M/AV/C/8BBS1YzYRgNB9Kjtixaqn+rafkqo5/UvTCwtE1h2FMC8mn0fyISazRIpr
lPZf3TlsH+VB1kBrWWSod+s0TR7ZNDd3aViBAu7Uw50+UNWBgQCituJGRk2AlApf
bveOa3mj7NcmPfjaSzx6d6QcAb7IuxvQ9EXpmJZn/d8g0yks+C8P9XkguQARAQAB
tCxjaGFuZ2NoZW5nZmVuZyA8Y2hhbmdjaGVuZ2ZlbmcwMDFAZ21haWwuY29tPokC
bgQTAQgAWBYhBEiMDO+ckZm3Z9kUZSvOukTbk9kmBQJqqHuKGxSAAAAAAAQADm1h
bnUyLDIuNSsxLjEyLDIsMQMbLwQFCwkIBwICIgIGFQoJCAsCBBYCAwECHgcCF4AA
CgkQK866RNuT2SamCw//fV+W8xazXSiVo1uV/Tsxw3T1uBuswsYg564BaXEJ7l5Z
/21xP7fn7j7saUK72bE3HICg4xWDvAKtMxhU3BNDOq79Cj9ycrqw/iMye7+KDWFW
1BLFrrxrBTqi8s3ExGlVRmFo+R+MtDQuyYHOkwIizvvjw5jIiWYNo2ooa2JrPURM
jL/pDC9nttFPBLTWGRonGHWZICmkYrcYqy0VTveio36hcdPy9OJzw/+a78753c8K
PBIco3sGT24BS2ABOd35xitXCoOeowxVSOOczqA8glt0HylUi8WuekBm5KBJPzwP
FqhLoN3PFFTC/Z600g52NkEgOxxsg1T1hBEFLRpXdDHhIG8eJRRFyijv537aRQA5
N2G8LSxuH2i9GpzOIOalyClwP+FC3mv6v9FWKArvPDTT8NE7XCZRpBnf1GRy20aI
t8n8HY9Mwq6x6L2B1ZPPvhzMJ1OAueFGMJVhTKNxdUcbCE4JshEOb0OELAKznRAV
BaiFYdGmvK6Cur1Q27C7OyIklCWvfsZ2NpohkCxHj1BFW1yV/cXVpyOjL6xjTS19
Ge6IdVW6Xz/H5cy/S0b2tJYEX91YMv/bN7XIkkuFrV9lsz1jLLm4+4golb+pdcEd
2aBdgaALm118SlJDMZsUN2Abe9iv5yZx9eT65XZkEEUnAYcsTFLfXlqaFFitt/i5
Ag0Eaqh7igEQAKXjNHJsyPb4NQGAYvZaRvlL1/hAKyyqxvQUN5DZx6CT2mnAytk/
bGHE1oundHNQzLc/bOthd6TZefzzIgySp/xgrUn4vStH7Yt7IaOpxrC3bZBr9mhi
e9rgnx4vH/EM0OFRaCSjRj3SVAcDqDwo0UfQZ/tXhcpclkULuP4xuKGyqmWLBSin
sGscYd7t/KFoRxIv//ep6OwjyuZvfql5ylbXkobZJy0m894Gn9qOO0xzBCP+8ZAp
irDsAzEJ1o4kqQwUFS9bqoQPs67zGpJgScL69PiWQHd7rHXm+kDbaAF2wSpXX5qT
ciaI2KV0oJI+BJjGjvS67XA8xPgh65YsCaSifWKKr3TabJTNIj+2Wc4ksOG5Djiq
LC9akg3Ay9Dn0XXWswNA1QYsoSrgUvGiJVknU6p9ud9Fn03NwqtopYRvmkkA4Mrw
Sgo9ViqnHo+LwMqw25sbbk782663kPPi8oo446Z6/IQxMdkAp58VqULy5l9nB/tm
IRCsmcyza7A9YiG4bfz8XyS+22FDzGDXajgr2V8Bn8edSE2hn6TFnwDjWPxm50PZ
0lIlvkC6aO3mTqleL3oktw6p+NU4oyoWZ9UiqkjZfCf0G/rt2KVCG2wXaHpCPuxZ
aYUr+aFl/vLtgE91zap7gQ6gIQ6yXTEtZyGX0xZIAxII+/x51Ubjo6krABEBAAGJ
BIgEGAEIADwWIQRIjAzvnJGZt2fZFGUrzrpE25PZJgUCaqh7ihsUgAAAAAAEAA5t
YW51MiwyLjUrMS4xMiwyLDECGy4CQAkQK866RNuT2SbBdCAEGQEIAB0WIQQPvlHF
2rQGReNctGLK+dYvoNm+igUCaqh7igAKCRDK+dYvoNm+iq6ID/40aJqUbEsP+nN4
zdI9k9Ym3NvDN+mgUq4ilCmq8HaV1NQlP2W9UaXchg9Qq4bYn0OpkUXnplZsacj7
aeWhDyjXcoTTu83FN94FWM/h8YxwjbZL4goj9zHXBXhzTaekteFkjrjxjpNVIz56
pGPWNuXlaoSL+I5U7kWVKWdCt2SUmZaz7KMCssyjvakGz5TbFvRLe6w4gbJiLRgS
vgylQ8qsM0PqQII57AtCnBVTmltZ859yuqyj5fXVqCujX8Iz2JK2e3lJZNQCwRPO
OqN3+0gi8EIG3s6Urfn5FJEzjqFSkymzZbX6MjKWMu/7tR91DxgdUe2Ddls/i5uu
1E/RCVpvcAvtRoBorTl9jwbRn7MudkJAJDIT7szT/BVh8ZvEsPN3avHweenS7iMG
Wc8+fJ6bferJS2dR2v9u5oMgaPi13gFDgBwa2zktkhCsQWVYEYnSXKYpVo02NEN+
0eJlsVpy6o3qnKWdFXs4qsXrh++cpPI8c70FiIlz4tiYUe+FwjqHpiyRsfHQ4Wh0
9whTKgd2+1Mp+NkSQw7Ep0tfMHwhC5tQ7eY4WcjMggIn0wBzTd8KrLDeyvjs6zJY
2Fy7SI7Kjja+o8fsE+zpOUPle7xCb+o8gDbLiOrMyjmXXqYxuS2JTtC0frJd9BOC
TX8FZyFFba8XMAFuRqoE1u+IO2dtITclEACwMy2iQJXlfKvVWBZsXmOGfliqufXo
gsk+spSaqVdEPtuXw3KtLbLfMVn1giKhOxIBriZBOBR9kurp3Gcax5dXhp6dTUU3
YupYLhDnLn737GyDbrcoXoBtTuJBeRqDgpiGnTWf6BD5YnsKmFvOuUR2X9ppb9oN
1LuUPT+uWHFMNdqjqtockKwVK9EMtWPEWxNAA0CH/IYgYM2EWf8r/zfcbJ/Om0SU
2PRHIGbcWUzHnJnvTUhQ3Ja2GG+ifyo6wAeqTduzar6hVIz/8k1aeC9ve5mSeu5B
yaruxepzHtDN0GypL1mVmEgc98P86e+VOOwnndU7sqKQ75WJ09GhI/+wwVaTQ27+
mnU/zwH2Qk3zFwyF64oQtQE6fJiV6Ru8WgC0BByzQwZJ4FJtv7UG3K2ZgHTNW7s4
vE3wNJJBbAsMFgFxzqzC4v8vi4D4tp9V4KgAseNfrjs/4b/5B/Kns3JdmOtpu4Rs
Jhi9VkzPCz8eNdb/s7sQ4kLGq41ULLuhKRo069OmyXO6qotK9E+vbwvsq73Jsc2E
ijmwYwKrE9NyKnV0j+tZSPPIwYrKOA39M7NzxaMPrNylL4G8qFFvt3EYz+RNscUX
BgH8p1FL1YPk61tpPjwM8Wd/LfMzOFklSoWb1Ktjb8Txd01H5SW5YJukDlPVnE1W
tBP8MlgumyFd9A==
=AU2L
-----END PGP PUBLIC KEY BLOCK-----
